ufans-frontend-package/public/assets/images/new-home/icon/audio-post.svg

<svg width="123" height="93" viewBox="0 0 123 93" fill="none" xmlns="http://www.w3.org/2000/svg">
<g clip-path="url(#clip0_1617_123)">
<path d="M90.14 23.4088C90.1398 22.3914 90.4415 21.3969 91.0069 20.5512C91.5723 19.7054 92.376 19.0465 93.3161 18.6578C94.2563 18.2691 95.2907 18.1681 96.2882 18.3677C97.2858 18.5672 98.2017 19.0583 98.92 19.7788V19.7788C99.398 20.2548 99.7774 20.8205 100.037 21.4434C100.296 22.0663 100.429 22.7341 100.43 23.4088V68.6888C100.432 69.707 100.132 70.7029 99.5673 71.5501C99.0026 72.3974 98.199 73.0579 97.2585 73.4479C96.3179 73.8378 95.2827 73.9396 94.2842 73.7404C93.2857 73.5411 92.3689 73.0498 91.65 72.3288C91.1715 71.853 90.7918 71.2874 90.5327 70.6645C90.2736 70.0415 90.1401 69.3735 90.14 68.6988V23.4088ZM0 18.2188C9.80149e-05 17.5441 0.133552 16.876 0.392691 16.2531C0.65183 15.6301 1.03154 15.0645 1.51 14.5888V14.5888C2.23074 13.8726 3.14723 13.3856 4.14411 13.1891C5.14099 12.9926 6.17372 13.0954 7.11232 13.4846C8.05092 13.8737 8.85344 14.5317 9.41888 15.3759C9.98432 16.2201 10.2874 17.2127 10.29 18.2288V73.8288C10.2881 75.1941 9.74508 76.503 8.78 77.4688V77.4688C8.05926 78.185 7.14277 78.6719 6.14589 78.8684C5.14901 79.0649 4.11628 78.9621 3.17768 78.573C2.23908 78.1839 1.43656 77.5258 0.871124 76.6816C0.305684 75.8374 0.00259369 74.8448 0 73.8288L0 18.2188ZM22.59 5.13877C22.5893 4.46484 22.7215 3.79738 22.9788 3.17453C23.2362 2.55168 23.6138 1.98565 24.09 1.50877V1.50877C24.8088 0.791751 25.7239 0.303667 26.7197 0.106085C27.7156 -0.091496 28.7477 0.010277 29.6858 0.398566C30.6239 0.786855 31.426 1.44427 31.9909 2.28787C32.5558 3.13148 32.8582 4.12349 32.86 5.13877V86.8988C32.8602 87.9149 32.5592 88.9083 31.995 89.7534C31.4309 90.5986 30.6289 91.2575 29.6904 91.6471C28.7519 92.0366 27.719 92.1392 26.7222 91.9419C25.7254 91.7447 24.8094 91.2564 24.09 90.5388V90.5388C23.6129 90.0626 23.2347 89.4966 22.9773 88.8736C22.7199 88.2506 22.5882 87.5829 22.59 86.9088V5.13877ZM67.64 33.9288C67.6393 33.2548 67.7715 32.5874 68.0288 31.9645C68.2862 31.3417 68.6638 30.7756 69.14 30.2988V30.2988C70.1036 29.3376 71.409 28.7978 72.77 28.7978C74.131 28.7978 75.4364 29.3376 76.4 30.2988V30.2988C77.3608 31.2625 77.9003 32.5679 77.9 33.9288V58.1588C77.9018 59.5229 77.3623 60.832 76.4 61.7988V61.7988C75.9235 62.2759 75.3577 62.6544 74.7348 62.9127C74.112 63.1709 73.4443 63.3039 72.77 63.3039C72.0957 63.3039 71.428 63.1709 70.8052 62.9127C70.1823 62.6544 69.6165 62.2759 69.14 61.7988C68.6629 61.3226 68.2847 60.7566 68.0273 60.1336C67.7699 59.5106 67.6382 58.8429 67.64 58.1688V33.9288ZM45.13 18.2488C45.1299 17.5725 45.2632 16.9029 45.5223 16.2783C45.7814 15.6537 46.1612 15.0863 46.64 14.6088V14.6088C47.3607 13.8926 48.2772 13.4056 49.2741 13.2091C50.271 13.0126 51.3037 13.1154 52.2423 13.5046C53.1809 13.8937 53.9834 14.5517 54.5489 15.3959C55.1143 16.2401 55.4174 17.2327 55.42 18.2488V73.8588C55.4199 74.5335 55.2864 75.2015 55.0273 75.8245C54.7682 76.4474 54.3885 77.013 53.91 77.4888C53.1893 78.2049 52.2728 78.6919 51.2759 78.8884C50.279 79.0849 49.2463 78.9821 48.3077 78.593C47.3691 78.2039 46.5666 77.5458 46.0011 76.7016C45.4357 75.8574 45.1326 74.8648 45.13 73.8488V18.2488ZM112.7 11.9988C112.698 11.3286 112.829 10.6647 113.085 10.0452C113.341 9.42568 113.716 8.86278 114.19 8.38877L114.3 8.28877C114.771 7.82661 115.33 7.46238 115.942 7.21708C116.555 6.97178 117.211 6.85027 117.871 6.85957C118.531 6.86887 119.183 7.00878 119.788 7.27125C120.394 7.53371 120.942 7.91352 121.4 8.38877C122.35 9.35022 122.881 10.6475 122.88 11.9988V79.9988C122.88 81.3527 122.348 82.6524 121.4 83.6188L121.29 83.7188C120.819 84.1809 120.26 84.5452 119.648 84.7905C119.035 85.0358 118.379 85.1573 117.719 85.148C117.059 85.1387 116.407 84.9988 115.802 84.7363C115.196 84.4738 114.648 84.094 114.19 83.6188C113.235 82.6559 112.7 81.3547 112.7 79.9988V11.9988Z" fill="#6661E7"/>
</g>
<defs>
<clipPath id="clip0_1617_123">
<rect width="122.88" height="92.04" fill="white"/>
</clipPath>
</defs>
</svg>

<svg xmlns="http://www.w3.org/2000/svg" xmlns:xlink="http://www.w3.org/1999/xlink" width="122.88" height="92.04" viewBox="0 0 122.88 92.04">
  <defs>
    <clipPath id="clip-path">
      <rect id="Rectangle_1" data-name="Rectangle 1" width="122.88" height="92.04" fill="#e44499"/>
    </clipPath>
  </defs>
  <g id="audio-post" clip-path="url(#clip-path)">
    <path id="Path_4" data-name="Path 4" d="M90.14,23.409a5.14,5.14,0,0,1,8.78-3.63h0a5.125,5.125,0,0,1,1.51,3.63v45.28a5.145,5.145,0,0,1-10.29.01ZM0,18.219a5.12,5.12,0,0,1,1.51-3.63h0a5.15,5.15,0,0,1,8.78,3.64v55.6a5.16,5.16,0,0,1-1.51,3.64h0A5.15,5.15,0,0,1,0,73.829ZM22.59,5.139a5.13,5.13,0,0,1,1.5-3.63h0a5.14,5.14,0,0,1,8.77,3.63V86.9a5.14,5.14,0,0,1-8.77,3.64h0a5.11,5.11,0,0,1-1.5-3.63Zm45.05,28.79a5.129,5.129,0,0,1,1.5-3.63h0a5.14,5.14,0,0,1,7.26,0h0a5.14,5.14,0,0,1,1.5,3.63v24.23a5.15,5.15,0,0,1-1.5,3.64h0a5.128,5.128,0,0,1-8.76-3.63ZM45.13,18.249a5.14,5.14,0,0,1,1.51-3.64h0a5.15,5.15,0,0,1,8.78,3.64v55.61a5.145,5.145,0,0,1-10.29-.01ZM112.7,12a5.09,5.09,0,0,1,1.49-3.61l.11-.1a5,5,0,0,1,7.1.1A5.13,5.13,0,0,1,122.88,12V80a5.17,5.17,0,0,1-1.48,3.62l-.11.1a5,5,0,0,1-7.1-.1A5.14,5.14,0,0,1,112.7,80Z" fill="#e44499"/>
  </g>
</svg>
